X:1
T:White Christmas
T:White Christmas
T:For: Guitar
%%score { ( 1 2 ) | ( 3 4 ) }
L:1/8
Q:1/4=40
M:4/4
K:A
V:1 treble-8 nm="Electric Guitar" snm="El. Guit."
V:2 treble-8 
V:3 tab stafflines=6 strings=E2,A2,D3,G3,B3,E4 
V:4 tab stafflines=6 strings=E2,A2,D3,G3,B3,E4 
V:1
 c4 dc^Bc | d4 ^d e3 | z [Acf]ga bagf | e6 z2 | c2 c2 c f2 e | A2 A2 A e2 d | c4 dcBA | B6 ed | %8
 c4 dc^Bc | d4 ^d e3 | z [Acf]ga bagf | e6 z2 | c2 c2 c f2 e | a6 AB | c2 c2 f e2 G | A6 ab | %16
 c'2 c'2 c' f'2 e' | a'6 AB | c2 c2 f2 e2 | z EBc e2 [Bca]2 |] %20
V:2
 [A,EG]EGE [^A,E=G]2 z2 | [B,FA]FAd [=C^^F^A][^CGB]GB | D4 [E,Gd]2 z2 | A,EAB ceAB | %4
 [A,EG]EGE [^A,E=G]4 | B,F z F [B,=F]4 | [A,EG]EGE [B,FA]4 | E,EAB G4 | [A,EG]EGE [^A,E=G]2 z2 | %9
 [B,FA]FAd [=C^^F^A][^CGB]GB | D4 [E,Gd]2 z2 | A,EAB ceAB | [A,EG]EGE [^A,E=G]4 | B,FAF d2 z2 | %14
 [A,EG]EGE [E,GB]4 | A,EAB c2 z2 | A,E- E2 ^A,4 | B,FAF d2 z2 | [A,EG]EGE [E,d]B d2 | A,6 A,2 |] %20
V:3
 !2!C4 !2!D!2!C!2!^B,!2!C | !2!D4 !2!^D !2!E3 | x [!3!A,!2!C!1!F]!1!G!1!A !1!B!1!A!1!G!1!F | %3
 !1!E6 x2 | !2!C2 !2!C2 !2!C !1!F2 !1!E | !3!A,2 !3!A,2 !3!A, !1!E2 !2!D | %6
 !2!C4 !2!D!2!C!2!B,!3!A, | !2!B,6 !1!E!2!D | !2!C4 !2!D!2!C!2!^B,!2!C | !2!D4 !2!^D !2!E3 | %10
 x [!3!A,!2!C!1!F]!1!G!1!A !1!B!1!A!1!G!1!F | !1!E6 x2 | !2!C2 !2!C2 !2!C !1!F2 !1!E | %13
 !1!A6 !3!A,!2!B, | !2!C2 !2!C2 !1!F !1!E2 !3!G, | !3!A,6 !3!A!2!B | !2!c2 !2!c2 !2!c !1!f2 !1!e | %17
 !1!a6 !3!A,!2!B, | !2!C2 !2!C2 !1!F2 !1!E2 | x !4!E,!2!B,!2!C !1!E2 [!2!B,!3!C!1!A]2 |] %20
V:4
 [!5!A,,!4!E,!3!G,]!4!E,!3!G,!4!E, [!5!^A,,!4!E,!3!=G,]2 x2 | %1
 [!5!B,,!4!F,!3!A,]!4!F,!3!A,!2!D [!5!=C,!4!^^F,!3!^A,][!5!^C,!4!G,!3!B,]!4!G,!3!B, | %2
 !4!D,4 [!6!E,,!4!G,!3!D]2 x2 | !5!A,,!4!E,!3!A,!2!B, !2!C!1!E!3!A,!2!B, | %4
 [!5!A,,!4!E,!3!G,]!4!E,!3!G,!4!E, [!5!^A,,!4!E,!3!=G,]4 | !5!B,,!4!F, x !4!F, [!5!B,,!4!=F,]4 | %6
 [!5!A,,!4!E,!3!G,]!4!E,!3!G,!4!E, [!5!B,,!4!F,!3!A,]4 | !6!E,,!4!E,!3!A,!2!B, !3!G,4 | %8
 [!5!A,,!4!E,!3!G,]!4!E,!3!G,!4!E, [!5!^A,,!4!E,!3!=G,]2 x2 | %9
 [!5!B,,!4!F,!3!A,]!4!F,!3!A,!2!D [!5!=C,!4!^^F,!3!^A,][!5!^C,!4!G,!3!B,]!4!G,!3!B, | %10
 !4!D,4 [!6!E,,!4!G,!3!D]2 x2 | !5!A,,!4!E,!3!A,!2!B, !2!C!1!E!3!A,!2!B, | %12
 [!5!A,,!4!E,!3!G,]!4!E,!3!G,!4!E, [!5!^A,,!4!E,!3!=G,]4 | !5!B,,!4!F,!3!A,!4!F, !2!D2 x2 | %14
 [!5!A,,!4!E,!3!G,]!4!E,!3!G,!4!E, [!6!E,,!3!G,!2!B,]4 | !5!A,,!4!E,!3!A,!2!B, !2!C2 x2 | %16
 !5!A,,!4!E,- !4!E,2 !5!^A,,4 | !5!B,,!4!F,!3!A,!4!F, !2!D2 x2 | %18
 [!5!A,,!4!E,!3!G,]!4!E,!3!G,!4!E, [!6!E,,!2!D]!2!B, !2!D2 | !5!A,,6 !5!A,,2 |] %20

